hero/solid/pause.svg

<svg width="24" height="24" viewBox="0 0 24 24" fill="none" xmlns="http://www.w3.org/2000/svg">
<path fill-rule="evenodd" clip-rule="evenodd" d="M6.75 5.25C6.75 4.83579 7.08579 4.5 7.5 4.5H9C9.41421 4.5 9.75 4.83579 9.75 5.25V18.75C9.75 19.1642 9.41421 19.5 9 19.5H7.5C7.30109 19.5 7.11032 19.421 6.96967 19.2803C6.82902 19.1397 6.75 18.9489 6.75 18.75L6.75 5.25ZM14.25 5.25C14.25 4.83579 14.5858 4.5 15 4.5H16.5C16.6989 4.5 16.8897 4.57902 17.0303 4.71967C17.171 4.86032 17.25 5.05109 17.25 5.25V18.75C17.25 19.1642 16.9142 19.5 16.5 19.5H15C14.5858 19.5 14.25 19.1642 14.25 18.75V5.25Z" fill="#0F172A"/>
</svg>

<svg viewBox="0 0 24 24" xmlns="http://www.w3.org/2000/svg"><path fill-rule="evenodd" d="M6.75 5.25v0c0-.42.33-.75.75-.75H9v0c.41 0 .75.33.75.75v13.5 0c0 .41-.34.75-.75.75H7.5v0c-.42 0-.75-.34-.75-.75V5.25Zm7.5 0v0c0-.42.33-.75.75-.75h1.5v0c.41 0 .75.33.75.75v13.5 0c0 .41-.34.75-.75.75H15v0c-.42 0-.75-.34-.75-.75V5.25Z"/></svg>
